svg/filled/flip-horizontal.svg

<svg width="24" height="24" viewBox="0 0 24 24" fill="none" xmlns="http://www.w3.org/2000/svg">
<path fill-rule="evenodd" clip-rule="evenodd" d="M15.079 3.46209C15.3762 3.17355 15.851 3.18054 16.1396 3.47771L19.538 6.9777C19.8205 7.26871 19.8205 7.73162 19.538 8.02263L16.1396 11.5226C15.851 11.8198 15.3762 11.8268 15.079 11.5382C14.7819 11.2497 14.7749 10.7749 15.0634 10.4777L17.2263 8.25015L4.99989 8.25015C4.58567 8.25015 4.24989 7.91437 4.24989 7.50015C4.24989 7.08594 4.58567 6.75015 4.99989 6.75015L17.2263 6.75015L15.0634 4.52264C14.7749 4.22546 14.7819 3.75064 15.079 3.46209ZM8.92071 12.4618C9.21788 12.7504 9.22488 13.2252 8.93633 13.5224L6.77327 15.7501L18.9999 15.7501C19.4141 15.7501 19.7499 16.0859 19.7499 16.5001C19.7499 16.9143 19.4141 17.2501 18.9999 17.2501L6.77366 17.2501L8.93633 19.4774C9.22488 19.7746 9.21788 20.2494 8.92071 20.538C8.62353 20.8265 8.14871 20.8195 7.86016 20.5224L4.46177 17.0224C4.17922 16.7314 4.17922 16.2685 4.46177 15.9774L7.86016 12.4775C8.14871 12.1803 8.62353 12.1733 8.92071 12.4618Z" fill="black"/>
</svg>

<svg xmlns="http://www.w3.org/2000/svg" viewBox="0 0 24 24" fill="currentColor">
  <path fill-rule="evenodd" d="M15.079 3.462a.75.75 0 011.06.016l3.399 3.5a.75.75 0 010 1.045l-3.398 3.5a.75.75 0 11-1.077-1.045l2.163-2.228H5a.75.75 0 110-1.5h12.226l-2.163-2.227a.75.75 0 01.016-1.06zm-6.158 9a.75.75 0 01.015 1.06L6.773 15.75H19a.75.75 0 010 1.5H6.774l2.162 2.227a.75.75 0 01-1.076 1.045l-3.398-3.5a.75.75 0 010-1.045l3.398-3.5a.75.75 0 011.06-.015z" clip-rule="evenodd"/>
</svg>
